svgs/sharp-light/chart-mixed-up-circle-currency.svg

<svg xmlns="http://www.w3.org/2000/svg" viewBox="0 0 576 512"><!--! Font Awesome Pro 6.6.0 by @fontawesome - https://fontawesome.com License - https://fontawesome.com/license (Commercial License) Copyright 2024 Fonticons, Inc. --><path d="M416 0L400 0l0 32 16 0 71 0L320.2 171 202.5 68l-9.6-8.4-10.3 7.5-176 128 18.8 25.9L191.1 100.5 309.5 204l10.3 9 10.5-8.7L512 52.8l0 75.2 0 16 32 0 0-16 0-112 0-16L528 0 416 0zm96 32s0 0 0 0s0 0 0 0s0 0 0 0zM80 352l0 96-32 0 0-96 32 0zM48 320l-32 0 0 32 0 96 0 32 32 0 32 0 32 0 0-32 0-96 0-32-32 0-32 0zm128-64l32 0 0 192-32 0 0-192zm-32-32l0 32 0 192 0 32 32 0 32 0 32 0 0-32 0-192 0-32-32 0-32 0-32 0zM320 368a112 112 0 1 1 224 0 112 112 0 1 1 -224 0zm256 0a144 144 0 1 0 -288 0 144 144 0 1 0 288 0zM406.6 393.4a35.9 35.9 0 1 1 50.7-50.7 35.9 35.9 0 1 1 -50.7 50.7zm-10 32.6c21.6 13.2 49.1 13.2 70.7 0l17.3 17.3 22.6-22.6L490 403.3c13.2-21.6 13.2-49.1 0-70.7l17.3-17.3-22.6-22.6L467.3 310c-21.6-13.2-49.1-13.2-70.7 0l-17.3-17.3-22.6 22.6L374 332.7c-13.2 21.6-13.2 49.1 0 70.7l-17.3 17.3 22.6 22.6L396.7 426z"/></svg>

<svg xmlns="http://www.w3.org/2000/svg" viewBox="0 0 576 512"><!--! Font Awesome Pro 6.4.0 by @fontawesome - https://fontawesome.com License - https://fontawesome.com/license (Commercial License) Copyright 2023 Fonticons, Inc. --><path d="M416 0H400V32h16 71L320.2 171 202.5 68l-9.6-8.4-10.3 7.5-176 128 18.8 25.9L191.1 100.5 309.5 204l10.3 9 10.5-8.7L512 52.8V128v16h32V128 16 0H528 416zm96 32l0 0h0v0zM80 352v96H48V352H80zM48 320H16v32 96 32H48 80h32V448 352 320H80 48zm128-64h32V448H176V256zm-32-32v32V448v32h32 32 32V448 256 224H208 176 144zM320 368a112 112 0 1 1 224 0 112 112 0 1 1 -224 0zm256 0a144 144 0 1 0 -288 0 144 144 0 1 0 288 0zM406.6 393.4a35.9 35.9 0 1 1 50.7-50.7 35.9 35.9 0 1 1 -50.7 50.7zm-10 32.6c21.6 13.2 49.1 13.2 70.7 0l17.3 17.3 22.6-22.6L490 403.3c13.2-21.6 13.2-49.1 0-70.7l17.3-17.3-22.6-22.6L467.3 310c-21.6-13.2-49.1-13.2-70.7 0l-17.3-17.3-22.6 22.6L374 332.7c-13.2 21.6-13.2 49.1 0 70.7l-17.3 17.3 22.6 22.6L396.7 426z"/></svg>
